X:24
T:The Ale is Dear
Z:Jack Campin, 2006, http://www.campin.me.uk/
M:C|
L:1/8
Q:1/2=110
K:B Minor
e|:f2ef B2fe|faef cAAe|f2ef B2fe|faec B3c:|
 |:B3c  d2cB|A3B  ABcA|B3c  d2cB|f2ec B3c |
   B3c  d2cB|A3B  ABcA|d2fd c2ec|f2ec B3 |]
